src/assets/svg/icons/fa/nuevos/classic/light/chart-simple-horizontal classic light.svg

<svg xmlns="http://www.w3.org/2000/svg" viewBox="0 0 448 512"><!--! Font Awesome Pro 6.4.0 by @fontawesome - https://fontawesome.com License - https://fontawesome.com/license (Commercial License) Copyright 2023 Fonticons, Inc. --><path d="M416 240c0-8.8-7.2-16-16-16L48 224c-8.8 0-16 7.2-16 16l0 32c0 8.8 7.2 16 16 16l352 0c8.8 0 16-7.2 16-16l0-32zm32 32c0 26.5-21.5 48-48 48L48 320c-26.5 0-48-21.5-48-48l0-32c0-26.5 21.5-48 48-48l352 0c26.5 0 48 21.5 48 48l0 32zM224 400c0-8.8-7.2-16-16-16L48 384c-8.8 0-16 7.2-16 16l0 32c0 8.8 7.2 16 16 16l160 0c8.8 0 16-7.2 16-16l0-32zm32 32c0 26.5-21.5 48-48 48L48 480c-26.5 0-48-21.5-48-48l0-32c0-26.5 21.5-48 48-48l160 0c26.5 0 48 21.5 48 48l0 32zm96-320l0-32c0-8.8-7.2-16-16-16L48 64c-8.8 0-16 7.2-16 16l0 32c0 8.8 7.2 16 16 16l288 0c8.8 0 16-7.2 16-16zm-16 48L48 160c-26.5 0-48-21.5-48-48L0 80C0 53.5 21.5 32 48 32l288 0c26.5 0 48 21.5 48 48l0 32c0 26.5-21.5 48-48 48z"/></svg>

<svg xmlns="http://www.w3.org/2000/svg" viewBox="0 0 448 512"><path d="M448 272C448 298.5 426.5 320 400 320H48C21.49 320 0 298.5 0 272V240C0 213.5 21.49 192 48 192H400C426.5 192 448 213.5 448 240V272zM400 224H48C39.16 224 32 231.2 32 240V272C32 280.8 39.16 288 48 288H400C408.8 288 416 280.8 416 272V240C416 231.2 408.8 224 400 224zM256 432C256 458.5 234.5 480 208 480H48C21.49 480 0 458.5 0 432V400C0 373.5 21.49 352 48 352H208C234.5 352 256 373.5 256 400V432zM208 384H48C39.16 384 32 391.2 32 400V432C32 440.8 39.16 448 48 448H208C216.8 448 224 440.8 224 432V400C224 391.2 216.8 384 208 384zM48 160C21.49 160 0 138.5 0 112V80C0 53.49 21.49 32 48 32H336C362.5 32 384 53.49 384 80V112C384 138.5 362.5 160 336 160H48zM352 112V80C352 71.16 344.8 64 336 64H48C39.16 64 32 71.16 32 80V112C32 120.8 39.16 128 48 128H336C344.8 128 352 120.8 352 112z"/></svg>
